docs/images/tabs/6.svg

<svg width="72" height="181" viewBox="0 0 72 181" fill="none" xmlns="http://www.w3.org/2000/svg">
<g clip-path="url(#clip0_509_9077)">
<path d="M71.9809 86.6681V85.1891H71.8846C71.5959 82.5959 70.7681 80.4254 69.4012 78.6966L69.0739 78.3125C68.4771 77.5826 67.6686 76.5837 66.9948 75.0471C66.398 73.6449 66.1092 72.1274 66.0707 70.5331C68.4386 69.6111 70.1328 67.3061 70.1328 64.6169V59.7957C70.1328 57.433 68.8237 55.3778 66.8985 54.2829V52.362C66.8985 50.1147 65.5702 48.1554 63.491 46.83V46.7916C63.0675 44.4674 62.2012 42.3929 60.8921 40.645C58.0814 36.8993 54.3659 36.1694 51.4012 35.5932C49.2451 35.1706 47.5317 34.8441 46.4151 33.5763C44.7402 31.6939 45.337 28.8319 46.4536 24.2987C47.705 19.2277 49.2836 12.9082 45.8183 6.70387C45.183 5.57058 41.814 -0.019043 36.6932 -0.019043C36.6739 -0.019043 36.6354 -0.019043 36.6162 -0.019043C33.4975 0.0193737 30.475 2.17071 28.0686 6.05079C24.2183 12.2935 25.3927 18.7667 26.3552 23.9721C27.2023 28.6398 27.6451 31.5786 25.7969 33.4803C24.6033 34.7096 22.8515 35.0746 20.8108 35.4779C17.8654 36.0926 14.1884 36.8417 11.4162 40.6258C10.3189 42.124 9.52955 43.8528 9.06752 45.7736L8.8365 46.7724C6.75736 48.0978 5.40977 50.057 5.40977 52.3044V54.0524C3.29212 55.0896 1.82902 57.241 1.82902 59.7572V64.5785C1.82902 67.2677 3.48463 69.5535 5.83329 70.4755C5.71779 71.8585 5.39051 73.1646 4.88998 74.4132C4.21618 76.0651 3.36912 77.16 2.81084 77.8899L2.54132 78.2549C1.17447 80.0989 0.385167 82.4231 0.0963966 85.1891H0.0386426V86.2647C0.000139956 87.0715 0.000139956 87.8974 0.0386426 88.7618V173.855C0.0386426 177.773 3.58089 180.962 7.91244 180.962H64.1071C68.4579 180.962 71.9809 177.773 71.9809 173.855V88.2624C71.9809 87.7054 72.0001 87.1675 71.9809 86.6489V86.6681ZM12.3595 98.3468V165.249C12.3595 165.941 11.782 166.517 11.0889 166.517C10.3959 166.517 9.81832 165.941 9.81832 165.249V98.3468C9.81832 97.6553 10.3959 97.079 11.0889 97.079C11.782 97.079 12.3595 97.6553 12.3595 98.3468ZM15.0739 49.1927H57.2921C60.5648 49.1927 62.8365 50.8638 62.8365 52.362V53.4185H9.52955V52.362C9.52955 50.8638 11.8012 49.1927 15.0739 49.1927ZM14.7274 43.0844C16.5755 40.5681 18.9242 40.0879 21.6579 39.5309C24.0066 39.0507 26.6825 38.4936 28.7616 36.3615C32.1691 32.8656 31.2836 27.9867 30.4173 23.2806C29.5124 18.2865 28.5691 13.1387 31.5916 8.22133C33.2087 5.609 35.0568 4.11075 36.6932 4.09154C39.0611 4.09154 41.3713 7.10724 42.2761 8.72074C44.952 13.5228 43.7199 18.517 42.5263 23.3383C41.3905 27.9483 40.1969 32.7119 43.3927 36.3039C45.4333 38.5897 48.2055 39.1275 50.6504 39.6077C53.4034 40.1456 55.7713 40.6066 57.6579 43.1036C58.1199 43.7183 58.505 44.3906 58.813 45.1013H15.4782L13.7456 44.7363C14.0151 44.1409 14.3424 43.5838 14.7274 43.0652V43.0844ZM5.85255 80.7135L6.08356 80.4062C6.73811 79.561 7.81618 78.1396 8.70174 75.9883C9.33704 74.4132 9.76057 72.7613 9.91458 71.0517L62.0087 71.3207C62.1242 73.1839 62.5285 74.9702 63.2408 76.6414C64.1263 78.7159 65.2429 80.0796 65.9167 80.9056L66.1862 81.2321C67.1681 82.4807 67.7071 84.1518 67.8611 86.2455C59.1787 88.4161 50.2461 89.7606 41.275 90.1064C28.7424 90.6058 16.2483 89.2996 4.10067 86.2647C4.23543 83.9597 4.81297 82.1157 5.85255 80.7327V80.7135Z" fill="#323E48"/>
</g>
<defs>
<clipPath id="clip0_509_9077">
<rect width="72" height="181" fill="white"/>
</clipPath>
</defs>
</svg>

<svg xmlns="http://www.w3.org/2000/svg" width="72" height="181" fill="none"><g clip-path="url(#a)"><path fill="#323E48" d="M71.98 86.668V85.19h-.095c-.29-2.593-1.117-4.764-2.484-6.492l-.327-.385c-.597-.73-1.405-1.728-2.08-3.265-.596-1.402-.885-2.92-.923-4.514 2.368-.922 4.062-3.227 4.062-5.916v-4.821c0-2.363-1.31-4.418-3.234-5.513v-1.921c0-2.247-1.329-4.207-3.408-5.532v-.038c-.423-2.325-1.29-4.4-2.599-6.147-2.81-3.746-6.526-4.476-9.49-5.052-2.157-.422-3.87-.749-4.987-2.017-1.675-1.882-1.078-4.744.039-9.277 1.251-5.071 2.83-11.39-.636-17.595C45.183 5.57 41.814-.02 36.693-.02h-.077c-3.118.038-6.141 2.19-8.547 6.07-3.85 6.243-2.676 12.716-1.714 17.921.847 4.668 1.29 7.607-.558 9.508-1.194 1.23-2.945 1.595-4.986 1.998-2.946.615-6.623 1.364-9.395 5.148-1.097 1.498-1.886 3.227-2.348 5.148l-.232.998c-2.079 1.326-3.426 3.285-3.426 5.532v1.748c-2.118 1.038-3.581 3.189-3.581 5.705v4.822a6.32 6.32 0 0 0 4.004 5.897 13.6 13.6 0 0 1-.943 3.937c-.674 1.652-1.52 2.747-2.08 3.477l-.269.365C1.174 80.099.385 82.423.096 85.189H.04v1.076a27 27 0 0 0 0 2.497v85.093c0 3.918 3.542 7.107 7.873 7.107h56.195c4.35 0 7.874-3.189 7.874-7.107V88.262c0-.557.02-1.094 0-1.613zM12.36 98.347v66.902a1.28 1.28 0 0 1-1.271 1.268 1.28 1.28 0 0 1-1.27-1.268V98.347a1.28 1.28 0 0 1 1.27-1.268c.693 0 1.27.576 1.27 1.268m2.714-49.154h42.218c3.273 0 5.544 1.67 5.544 3.169v1.056H9.53v-1.056c0-1.498 2.271-3.17 5.544-3.17m-.347-6.109c1.849-2.516 4.197-2.996 6.93-3.553 2.35-.48 5.026-1.037 7.105-3.17 3.407-3.495 2.522-8.374 1.655-13.08-.905-4.994-1.848-10.142 1.175-15.06 1.617-2.612 3.465-4.11 5.101-4.13 2.368 0 4.678 3.016 5.583 4.63 2.676 4.802 1.444 9.796.25 14.617-1.136 4.61-2.33 9.374.867 12.966 2.04 2.286 4.813 2.823 7.257 3.304 2.753.538 5.121.999 7.008 3.496a9.8 9.8 0 0 1 1.155 1.997H15.478l-1.732-.365q.404-.893.981-1.67zm-8.874 37.63.23-.308c.655-.845 1.733-2.266 2.619-4.418a17.3 17.3 0 0 0 1.213-4.936l52.094.269c.115 1.863.52 3.65 1.232 5.32.885 2.075 2.002 3.439 2.676 4.265l.27.326c.981 1.249 1.52 2.92 1.674 5.014-8.682 2.17-17.615 3.515-26.586 3.86-12.533.5-25.027-.806-37.174-3.841.134-2.305.712-4.15 1.752-5.532z"/></g><defs><clipPath id="a"><path fill="#fff" d="M0 0h72v181H0z"/></clipPath></defs></svg>
